!!!COM: Beethoven, Ludwig van
!!!CDT: 1770///-1827///
!!!OTL: Piano Sonata no. 21 in C major
!!!OTP: Waldstein
!!!ODT: 1803///-1804///
!!!ODE: Graf Ferdinand von Waldstein
!!!OPS: 53
!!!OMV: 2
!!!OMD: Introduzione: Adagio molto
**kern	**kern	**dynam
*staff2	*staff1	*staff1/2
*Ipiano	*Ipiano	*Ipiano
*clefF4	*clefF4	*clefF4
*k[b-]	*k[b-]	*k[b-]
*F:	*F:	*F:
*M6/8	*M6/8	*M6/8
*MM40	*MM40	*MM40
=1-	=1-	=1-
4.FFF 4.FF	8r	pp
.	16.CLL<	.
.	32CJJk	.
!	!LO:TX:a:i:t=ten.	!
.	8A	.
4.FFF 4.FF	8r	.
.	16.ALL	.
.	32AJJk	.
!	!LO:TX:a:i:t=ten.	!
.	8d#	.
=2	=2	=2
8r	8r	.
(8EE' 8E'L	8G#' 8Bn' (8e'L	.
8EE') 8E'J	8G#' 8B' 8e'J)	.
4EE 4E	4G# 4B 4e	.
8r	8r	.
*	*clefG2	*clefG2
=3	=3	=3
4.EE 4.E	8r	.
.	16.BnLL	.
.	32BJk	.
!	!LO:TX:a:i:t=ten.	!
.	8gnJ	.
4.EE 4.E	8r	.
.	16.c#LL	.
.	32c#Jk	.
!	!LO:TX:a:i:t=ten.	!
.	8a#J	.
=4	=4	=4
8r	8r	.
(8DD#' 8BBn' 8D#'L	(8Bn' 8f#' 8bn'L	.
8DD#') 8BB' 8D#'J	8B') 8f#' 8b'J	.
4DD# 4BB 4D#	4B 4f# 4b	.
8r	8r	.
=5	=5	=5
((4.DDn 4.Dn	8r	.
.	16.fnLL	<
.	32fJk	.
!	!LO:TX:a:i:t=ten.	!
.	8bnJ	.
4.DD- 4.D-))	8r	.
.	16.bLL	.
.	32bJk	.
.	[8ffJ	.
=6	=6	=6
*	*^	*
8CC 8CL	4.ryy	8ffL]	.
8CC 8C	.	(8ee	.
8CC 8CJ	.	8ggJ)	.
4CC 4C	4b-X	4ez^	.
8r	8r	8r	.
*	*v	*v	*
=7	=7	=7
8r	8r	p
8DD 8DL	(8f 8aL	<
8DD 8DJ	8a 8ffJ	[ >
4DD 4D	4f) 4a	]
8r	8r	.
=8	=8	=8
8BBB- 8BB-	8r	>
8r	8B- 8d 8g	.
8r	8r	.
8CC 8C	8r	.
8r	8G 8B- 8e	.
8r	8r	.
=9	=9	=9
8FFF 8FFL	8r	.
8FFF 8FF	(8A 8c 8fL	pp
8FFF 8FFJ	8A 8c 8aJ	.
4FFF 4FF	4A) 4c 4f	.
*	*clefF4	*clefF4
8r	16.CLL	rfz
.	32CJJk	.
=10	=10	=10
*^	*	*
.	.	(8Cq	.
8.FF 8.CL	4.ryy	8.AL)	.
16EE' 16C'L	.	(16G'L	.
16FF' 16C'	.	16A'	.
16GG' 16C'JJ	.	16B-'JJ)	.
16GG# 16CLK	4r	16BnLK	.
8AAzy 8Czy	.	8cz	.
(<8BB-Xzy 8Czy	.	(8dz	.
.	16ryy	.	.
16CJk	32GGnLLL	32B-LL	.
.	32FFJJJ	32AJJJ	.
*v	*v	*	*
=11	=11	=11
8.EE 8.C)	16G)	>
*	*clefG2	*
.	(16f#'LL	.
.	16g'	.
16F#' (16c'LL	16a'	p
16G' 16c'	16b-'JJ)	.
16A' 16c'JJ	(16ff#'	.
16B-' 16c')	16gg'LL	.
(16FF#'LL	16aa'	.
16GG'	16bb-'JJ)	.
16AA'	16r	.
*	*clefF4	*
16BB-'	16.CLL	rfz
16GG'JJ)	.	.
.	32CJJk	.
=12	=12	=12
.	8Cq	.
16EELK	8.B-L	.
8GG 8C	.	.
(16FF#' 16C'L	(16A'L	.
16GG' 16C'	16B-'	.
16AA' 16C'JJ)	16c'JJ)	.
*	*^	*
16AA 16CLK	16c#LK	16r	.
8BB-zy 8Czy	8dz<	8r	.
(8EEzy 8Czy	(8cnzy	8GLz	.
16CC 16CJk	32dLL	16EJk	>
.	32B-JJJ	.	.
=13	=13	=13	=13
8.FF 8.C)	16A)	16F	.
*	*v	*v	*
*	*clefG2	*clefG2
*	*^	*
.	(16g#'LL	8.ryy	p
.	16a'	.	.
(16G#'LL	16bn'JJ	.	.
16A'	16cc')	16ryy	.
16Bn'JJ	16ryy	(16gg#'	.
16c')	8.ryy	16aa'LL	.
(16GG#'LL	.	16bbn'	.
16AA'	.	16ccc'JJ)	.
16BBn'	16r	16r	.
16C'	8ryy	16.ccLL	<
16BB-'JJ)	.	.	.
.	.	32ccJJk	.
=14	=14	=14	=14
*^	*	*	*
8r	8AAL	(8fL	4f	.
8cL	8A	16.ffL	.	.
.	.	32ffJk	.	.
[8cJzy	8B-Jzy	8eeJzy	[8gz	.
8cL]	8EL	(8ggL	8g]	.
8G	8C	16.b-L)	8e	.
.	.	32b-JJk)	.	.
.	.	(8b-q	.	.
8AJ	8FJ	(32aLLL)	8f	.
.	.	32g#	.	p
.	.	32a	.	.
.	.	32ccJJJ)	.	.
=15	=15	=15	=15	=15
8r	8r	(8fL	4f	<
8cL	8AL	16.ffL	.	.
.	.	32ffJk	.	.
[8cJzy	8B-Jzy	8eeJzy	[8gnz	.
8cL]	8EL	(8ggL	8gL]	.
8G	8C	16.b-L)	8e	.
.	.	32b-Jk	.	.
8FJ	8DJ	8aJ)	8fJ	.
*v	*v	*	*	*
*	*v	*v	*
=16	=16	=16
8BBB- 8BB-	8r	>
8r	8B- 8d 8g	.
8r	8r	.
8CC 8C	8r	.
8r	8G 8B- 8e	.
8r	8r	.
*	*clefF4	*clefF4
=17	=17	=17
4.FF	8r	pp
.	16.CLL	.
.	32CJk	.
.	8AJ	.
4FFF [<4FF	8r	.
.	16.ALL	.
.	32AJk	.
(32FFLLL]	8d#J	.
32AA	.	.
32C	.	.
32AAJJJ)	.	.
=18	=18	=18
8EEL	8eL	.
(8EE' 8E'	8G#' 8Bn' (8e'	.
8EE') 8E'J	8G#' 8B' 8e'J)	.
4EE 4E	8G# 8B 8eL	<
.	(8Gn'	.
8r	8G'J)	.
*	*clefG2	*clefG2
=19	=19	=19
*^	*	*
4.G	4.EE 4.E	8r	.
.	.	16.BnLL	pp
.	.	32BJk	.
.	.	8gJ	.
[<4EE [4E	4.ryy	8r	.
.	.	16.c#LL	.
.	.	32c#Jk	<
32EE] 32ELLL]	.	8a#J	.
(32E	.	.	[ >
32G	.	.	.
32EJJJ)	.	.	]]
=20	=20	=20	=20
4.ryy	8D#L	8bnL	.
.	(8DD#' 8BBn' 8D#'	(8Bn' 8f#' 8b'	.
.	8DD#') 8BB' 8D#'J	8B') 8f#' 8b'J	.
8ryy	8DD# 8BB 8D#	8B 8f# 8b	.
(8Fn'L	8DnL	4ryy	<
8F'J)	8DJ	.	.
*v	*v	*	*
=21	=21	=21
[<4D	8F<L	pp
.	16.fnL	.
.	32fJk	.
32DLLL]	[>8bnJ	<
32F	.	.
32A-	.	.
32FJJJ	.	.
[4D-	8bL]	.
.	16.bL	.
.	32bJk	.
32D-LLL]	[8ffJ	.
32F	.	.
32A-	.	.
32FJJJ	.	.
=22	=22	=22
[4C\	8ffL]	.
.	16.ffL	.
.	32ffJk	.
32CLLL]	[8aa-J	.
32F	.	.
32A-	.	.
32FJJJ	.	.
[4BBn\	8aa-L]	.
.	16.ffL	.
.	32ffJk	.
32BBLLL]	[8dddJ	.
32F	.	.
32A-	.	.
32FJJJ	.	.
=23	=23	=23
!LO:DY:rj	!	!
[4AA-\z	8dddL]	.
.	16.ffL	.
.	32ffJk	.
32AA-LLL]	[8fffJz	.
32F	.	.
32Bn	.	.
32FJJJ	.	.
[4GG\	8fffL]	.
.	16.ffL	.
.	32ffJk	.
32GGLLL]	[8fffJz	.
32F	.	.
32B	.	.
32FJJJ	.	.
=24	=24	=24
!LO:DY:rj	!	!
[4AA-\z	8fffL]	.
.	16.ffL	.
.	32ffJk	.
32AA-LLL]	[8fffJz	.
32F	.	.
32Bn	.	.
32FJJJ	.	.
32AA-LLL	16.fff]	.
32F	.	.
32B	.	.
32FJJJ	(32ffLLL	>
32AA-LLL	32fffJJJ)	.
32F	32r	.
32B	32r	.
32FJJJ	(32ddLLL	.
32AA-LLL	32dddJJJ)	.
32F	32r	.
32B	32r	.
32FJJJ	(32bn	.
=25	=25	=25
32GGLLL	32bbn)	.
32F	32r	.
32Bn	32r	.
32FJJJ	32fLLL	.
32GGLLL	32ffJJJ	.
32D	32r	.
32F	32r	.
32DJJJ	32dLLL	.
32GGLLL	32ddJJJ	.
32BBn	32r	.
32D	32r	.
32BBJJJ	(32BnLLL	.
32GGLLL	32bnJJJ)	.
32BB	32r	.
32D	32r	.
*	*clefF4	*clefF4
32BBJJJ	(32FLLL	.
32GGLLL	32fJJJ)	.
32BB	32r	.
32D	32r	.
32BBJJJ	(32DLLL	.
32GGLLL	32dJJJ)	.
32DD	32r	.
32BBBn	32r	.
32DDJJJ	(>32BBn	.
=26	=26	=26
8GGGL	8BnL)	pp
(8GGG' 8GG'	8BBn' 8D' (8F'	.
8GGG' 8GG'J)	8BB' 8D' 8F'J)	.
4GGG# 4GG#	4BB 4D 4F	.
*	*clefG2	*clefG2
8r	(8ff	.
=27	=27	=27
8r	8ee)	.
*	*clefF4	*clefF4
(8AAA' 8AA'L	8C' (8E'L	.
8AAA' 8AA'J)	8C' 8E'J)	.
4AAA 4AA	4C 4E	.
*	*clefG2	*clefG2
8r	(8ee	.
=28	=28	=28
8FFF 8FF	8dd)	.
*	*clefF4	*clefF4
8r	8D 8F 8A	.
*	*clefG2	*clefG2
8r	(8ddL	.
8GGG 8GG	8ggJ)	.
*	*clefF4	*clefF4
8r	8BBn 8D 8G	.
*	*clefG2	*clefG2
!	!LO:DY:rj	!
8r;	8gg;z>	.
=||	=||	=||
*-	*-	*-
!!!RDF**kern: > = above
!!!RDF**kern: < = below
!!!LOR: Durand 1915, plates 9327/9328, Paul Dukas, ed.
!!!URL-vhv: https://verovio.humdrum.org/?file=beethoven/sonatas/sonata21-2.krn
!!!URL-pdf: https://github.com/craigsapp/beethoven-piano-sonatas/blob/master/reference-edition/sonata21-2.pdf
!!!ENC: Craig Stuart Sapp
!!!END: 2008/02/19/
!!!EED: Craig Stuart Sapp
!!!EEV: 2020/07/24
